**kern
*staff3
*tb16
=1-
*clefF4
*k[f#]
*M6/8
4GG/ 4G/
.
.
.
8r
.
4DD/ 4D/
.
.
.
8r
.
=2
4AA\ 4A\
.
.
.
8r
.
4DD/ 4D/
.
.
.
8r
.
=3
4GG/ 4G/
.
.
.
8r
.
4GGG/ 4GG/
.
.
.
8r
.
=4
!!linebreak:original
4AAA/ 4AA/
.
.
.
8r
.
4AA/
.
.
.
8r
.
=5
4DD/ 4D/
.
.
.
8r
.
4AAA/ 4AA/
.
.
.
8r
.
=6
4EE/ 4E/
.
.
.
8r
.
4AAA/ 4AA/
.
.
.
8r
.
=7
4.FF#/
.
.
.
.
.
4.AA/
.
.
.
.
.
=8
!!linebreak:original
4.GG/
.
.
.
.
.
4.C/
.
.
.
.
.
=9
4.BB/
.
.
.
.
.
4.D\
.
.
.
.
.
=10
4.C/
.
.
.
.
.
4.Fn\
.
.
.
.
.
=11
4.E\
.
.
.
.
.
4.A\
.
.
.
.
.
=12
!!linebreak:original
4.D\
.
.
.
.
.
4.DD/
.
.
.
.
.
=13
4GG/
.
.
.
8r
.
4D\ 4d\
.
.
.
8r
.
=14
4D\ 4d\
.
.
.
8r
.
4D\ 4d\
.
.
.
8r
.
=15
4.G\
.
.
.
.
.
4.GG/
.
.
.
.
.
=16
!!linebreak:original
4AA\ 4A\
.
.
.
8r
.
4DD/ 4D/
.
.
.
8r
.
=17
4GG/ 4G/
.
.
.
8.r
.
.
8.GGG/ 8.GG/
.
.
8r
.
=18
8AAA/ 8AA/
.
8r
.
4AA/
.
.
.
8r
.
8r
.
=19
4DD/ 4D/
.
.
.
8.r
.
.
8.AAA/ 8.AA/
.
.
8r
.
=20
!!linebreak:original
4EE/ 4E/
.
.
.
8.r
.
.
8.AAA/ 8.AA/
.
.
8r
.
=21
4.FF#/
.
.
.
.
.
4.AA/
.
.
.
.
.
=22
4.GG/
.
.
.
.
.
4.C/
.
.
.
.
.
=23
(4.BB/
.
.
.
.
.
4.D\)
.
.
.
.
.
=24
!!linebreak:original
4.C/
.
.
.
.
.
4.Fn\
.
.
.
.
.
=25
4.E\
.
.
.
.
.
4.A\
.
.
.
.
.
=26
4.D\
.
.
.
.
.
4.DD/
.
.
.
.
.
=27
4GG/
.
.
.
8r
.
(4D\ 4d\
.
.
.
8r)
.
=28
!!linebreak:original
4D\ 4d\
.
.
.
8r
.
4D\ 4d\
.
.
.
8r
.
=29
4.G\
.
.
.
.
.
4.GG/
.
.
.
.
.
=30
4.C#/
.
.
.
.
.
4.Cn/
.
.
.
.
.
=31
4.BB/
.
.
.
.
.
4.BB-/
.
.
.
.
.
=32
!!linebreak:original
4.AA/
.
.
.
.
.
4.AAA/
.
.
.
.
.
=33
4DD/ 4D/
.
.
.
8r
.
4AAA/ 4AA/
.
.
.
8r
.
=34
4EE/ 4E/
.
.
.
8r
.
4AAA/ 4AA/
.
.
.
8r
.
=35
(4.FF#/
.
.
.
.
.
4.GG/)
.
.
.
.
.
=36
!!linebreak:original
(4.AA/
.
.
.
.
.
4.BB-/
.
.
.
.
.
=37
4.BBn/
.
.
.
.
.
4.C/)
.
.
.
.
.
=38
4.D\
.
.
.
.
.
4.E-\
.
.
.
.
.
=39
4.A\
.
.
.
.
.
4.AA/
.
.
.
.
.
=40
!!linebreak:original
(4.A\
.
.
.
.
.
4.AA/
.
.
.
.
.
=41
4.D\)
.
.
.
.
.
4.D\
.
.
.
.
.
=42
4.D\
.
.
.
.
.
4.C#/
.
.
.
.
.
=43
4.C/
.
.
.
.
.
4.BB/
.
.
.
.
.
=44
4.D^\
.
.
.
.
.
4.C/
.
.
.
.
.
=45
!!linebreak:original
*k[f#c#]
4.C#^/
.
.
.
.
.
4.C#/
.
.
.
.
.
=46
4.D\
.
.
.
.
.
4.DD/
.
.
.
.
.
=47
4.GG/
.
.
.
.
.
4D\
.
.
.
8r
.
=48
4D\
.
.
.
8r
.
4D\
.
.
.
8r
.
=49
2.GG/ 2.G/
.
.
.
.
.
.
.
.
.
.
.
==
*-
